frontend/src/assets/Board_Coin/Default/yellow-pearl-king.svg

<svg width="26" height="26" viewBox="0 0 26 26" fill="none" xmlns="http://www.w3.org/2000/svg">
<g clip-path="url(#clip0_1189_5267)">
<g opacity="0.69">
<path d="M12.8877 25.972C19.7913 25.972 25.3877 20.3756 25.3877 13.472C25.3877 6.56849 19.7913 0.972046 12.8877 0.972046C5.98414 0.972046 0.387695 6.56849 0.387695 13.472C0.387695 20.3756 5.98414 25.972 12.8877 25.972Z" fill="#FFD015"/>
<path d="M12.8876 24.0818C18.7472 24.0818 23.4973 19.3316 23.4973 13.472C23.4973 7.61244 18.7472 2.8623 12.8876 2.8623C7.02797 2.8623 2.27783 7.61244 2.27783 13.472C2.27783 19.3316 7.02797 24.0818 12.8876 24.0818Z" fill="#FFC501"/>
<path d="M18.4376 4.41693C19.4941 6.06507 20.1077 8.02688 20.1077 10.1318C20.1077 15.9897 15.3587 20.7415 9.49799 20.7415C7.46189 20.7415 5.56336 20.1692 3.94824 19.1759C5.83301 22.12 9.13204 24.0708 12.8878 24.0708C18.7457 24.0708 23.4975 19.3217 23.4975 13.4611C23.4975 9.6365 21.4725 6.28519 18.4403 4.41968L18.4376 4.41693Z" fill="#F5B611"/>
<path d="M4.13802 14.4433C4.13802 9.27056 8.33128 5.07729 13.5041 5.07729C16.528 5.07729 19.2162 6.51082 20.9276 8.73402C19.3097 5.9275 16.2803 4.03723 12.808 4.03723C7.63516 4.03723 3.44189 8.2305 3.44189 13.4033C3.44189 15.5522 4.16554 17.5305 5.38444 19.1126C4.59202 17.7396 4.14077 16.1438 4.14077 14.4461L4.13802 14.4433Z" fill="#FFD453"/>
</g>
</g>
<path d="M21.1854 10.8867C20.6921 11.5569 20.6423 12.394 20.3358 13.1364C20.1963 13.4728 20.565 13.6721 20.6971 13.9187C21.0708 14.6213 20.6597 15.2491 20.2038 15.3512C19.3941 15.5306 19.3393 15.999 19.4016 16.567C19.5012 17.4838 19.1001 17.7828 18.2481 17.6707C17.4234 17.5611 16.5614 17.8874 15.7592 17.4739C15.9187 17.1051 16.25 17.1774 16.5465 17.1724C17.1569 17.1649 17.7648 17.1724 18.3751 17.1575C18.5695 17.1525 18.856 17.2347 18.8859 16.9283C18.9232 16.5471 18.6093 16.6044 18.3751 16.6019C17.3088 16.5944 16.2401 16.5745 15.1763 16.6019C14.3765 16.6218 13.6615 16.4574 13.096 15.8669C12.8718 15.6328 12.6849 15.5306 12.4258 15.8221C11.8005 16.5296 10.9733 16.6268 10.0889 16.5994C9.1447 16.572 8.20048 16.582 7.25377 16.5994C7.0146 16.6044 6.60851 16.4424 6.59356 16.8485C6.57612 17.3393 7.02706 17.1599 7.28367 17.1599C9.56823 17.1749 11.8553 17.1624 14.1399 17.1724C14.4861 17.1724 14.8897 17.0329 15.1289 17.4465C14.8848 17.7903 14.5185 17.6582 14.2021 17.6607C11.8578 17.6707 9.51093 17.6358 7.16906 17.6831C6.33446 17.7006 5.99564 17.4415 6.05045 16.5944C6.08284 16.0613 6.19246 15.4783 5.30305 15.3487C4.92436 15.2939 4.38623 14.6636 4.7126 14.2027C5.40768 13.2236 4.86457 12.3865 4.66775 11.4772C4.57308 11.0362 3.93281 10.4607 4.62291 10.1344C5.21087 9.85781 5.32049 10.6401 5.61945 10.969C5.84118 11.2106 5.97073 11.5843 6.36187 11.5694C6.82277 11.5544 6.88754 11.1309 7.03702 10.8095C7.06194 10.7547 7.06941 10.6899 7.1018 10.6401C7.34097 10.2863 7.25626 9.63359 7.85917 9.62861C8.37238 9.62612 8.41972 10.1966 8.65889 10.5255C8.74858 10.6476 8.81584 10.7846 8.89557 10.9141C9.39135 11.6939 9.89211 11.7039 10.4103 10.9465C10.5747 10.7049 10.6594 10.3636 11.0705 10.4458C11.0207 11.1732 10.6868 11.7737 9.98927 11.9555C8.64643 12.3018 8.49944 10.954 7.8791 10.2589C7.48048 10.7622 7.48547 11.4099 7.03952 11.816C6.50138 12.3093 5.92588 11.9231 5.2881 11.7786C5.40768 12.1773 5.46997 12.4712 5.58457 12.7428C6.05543 13.8514 5.8636 15.5231 6.92242 16.004C7.97875 16.4848 9.42872 16.1086 10.7093 16.0937C11.3271 16.0862 11.7855 15.7623 12.2215 15.3512C12.4956 15.0921 12.523 14.9277 12.2838 14.6238C11.8503 14.0757 11.4592 13.4952 11.083 12.9072C10.7666 12.4065 10.8662 11.9132 11.2648 11.4921C11.6336 11.1035 13.5295 10.9939 14.0228 11.3402C14.4513 11.6416 14.683 12.0627 14.536 12.6008C14.4812 12.8001 14.3566 12.9845 14.2395 13.1588C14.0028 13.5101 13.7462 13.8514 13.5021 14.2002C12.8967 15.0622 12.9565 15.3462 13.9106 15.852C14.1697 15.989 14.4837 16.0887 14.7751 16.0937C15.6845 16.1111 16.5963 16.0737 17.5057 16.0563C17.9965 16.1086 18.6965 16.4026 18.9033 15.8894C19.429 14.6013 19.7628 13.2361 20.2262 11.7338C19.6432 11.9206 19.277 12.1773 18.851 12.0901C18.6367 11.9804 18.5196 11.8285 18.6417 11.5793C19.4365 11.7761 19.7354 11.1907 20.0842 10.6775C20.3458 10.2938 20.57 9.81048 21.1829 10.1568V10.8892L21.1854 10.8867ZM12.797 14.2326C13.0013 13.9835 13.3177 13.7892 13.3028 13.4279C13.2853 13.0891 13.0486 12.688 12.7497 12.6955C12.4034 12.7029 12.1418 13.1215 12.1567 13.4703C12.1692 13.7767 12.4258 14.0532 12.797 14.2326ZM12.4034 12.0029C12.4208 11.7388 12.2763 11.6391 12.0695 11.6615C11.6859 11.7064 11.4617 11.9231 11.4666 12.3242C11.4666 12.5385 11.5314 12.8624 11.7482 12.8026C12.1119 12.7054 12.234 12.2968 12.4034 12.0029ZM14.0452 12.2246C14.0228 11.9057 13.801 11.6591 13.375 11.6441C13.1931 11.6366 12.9764 11.7338 13.0561 11.9605C13.1857 12.3292 13.3825 12.7129 13.7736 12.82C13.943 12.8674 14.0477 12.5559 14.0452 12.2221V12.2246Z" fill="#16140F"/>
<path d="M18.6441 11.582C18.5195 11.8311 18.6366 11.9806 18.8534 12.0927C18.7736 12.4315 18.6964 12.7703 18.6192 13.1117C18.0312 12.9622 17.7123 13.2885 17.4956 13.7619C17.1568 14.4993 16.9674 15.2393 17.5703 15.9468C17.5329 15.9742 17.5105 16.0116 17.5105 16.0589C16.6012 16.0764 15.6894 16.1137 14.78 16.0963C14.4885 16.0913 14.1746 15.9917 13.9155 15.8546C12.9613 15.3489 12.9015 15.0624 13.5069 14.2029C13.7511 13.8566 14.0077 13.5153 14.2444 13.1615C14.3615 12.9871 14.4885 12.8002 14.5408 12.6034C14.6878 12.0653 14.4561 11.6443 14.0276 11.3428C13.5343 10.9965 11.6384 11.1061 11.2697 11.4948C10.8711 11.9133 10.7714 12.4091 11.0878 12.9099C11.4615 13.5003 11.8552 14.0783 12.2887 14.6264C12.5303 14.9328 12.5029 15.0948 12.2264 15.3539C11.7929 15.7674 11.332 16.0913 10.7141 16.0963C9.43608 16.1088 7.98611 16.4849 6.92729 16.0066C5.86847 15.5258 6.0603 13.8516 5.58944 12.7454C5.47484 12.4764 5.41255 12.1824 5.29297 11.7813C5.93075 11.9258 6.50376 12.3119 7.04438 11.8187C7.48784 11.4126 7.48784 10.7648 7.88397 10.2616C8.50431 10.9566 8.6513 12.3045 9.99414 11.9582C10.6917 11.7788 11.0256 11.1784 11.0754 10.4484C11.1551 10.2491 11.2373 10.0498 11.3195 9.85298C12.1915 9.60136 12.0968 8.56496 12.8168 8.06171C13.4172 9.10309 14.0002 10.1495 14.6156 11.1759C15.3082 12.3294 16.3047 12.3269 17.0073 11.1933C17.2041 10.8769 17.4034 10.563 17.6052 10.2441C17.8693 10.5107 17.797 10.9791 18.2604 10.9865C18.3177 11.2307 18.4473 11.4275 18.6466 11.582H18.6441ZM15.5922 15.2717C16.3795 15.3564 16.6834 14.756 16.6934 14.2253C16.7033 13.6872 16.4019 13.1092 15.6345 13.1266C15.0516 13.1391 14.3465 13.722 14.4736 14.2303C14.6106 14.7659 14.8174 15.3713 15.5922 15.2717ZM9.89448 13.1316C9.08729 13.1117 8.77089 13.6747 8.79082 14.2278C8.81324 14.8207 9.15954 15.3464 9.96673 15.2891C10.7241 15.2343 10.9907 14.7011 10.9658 14.1456C10.9408 13.5751 10.5921 13.0469 9.89448 13.1316ZM8.26514 14.9328C8.25767 14.4047 8.14058 13.9089 7.8167 13.4779C7.62487 13.2213 7.39816 13.0095 7.05186 13.1017C6.71054 13.1939 6.6084 13.5003 6.56106 13.8067C6.48134 14.3374 6.61089 14.8382 6.86252 15.3016C7.04937 15.6479 7.2985 16.0838 7.72701 15.9817C8.1929 15.8721 8.2776 15.3838 8.26514 14.9303V14.9328Z" fill="#F3C65F"/>
<path d="M15.1291 17.4515C14.8899 17.0379 14.4863 17.1774 14.14 17.1774C11.8555 17.1674 9.56842 17.1774 7.28385 17.1649C7.02974 17.1649 6.57631 17.3443 6.59375 16.8535C6.6087 16.4474 7.01479 16.6069 7.25396 16.6044C8.19818 16.587 9.1424 16.577 10.0891 16.6044C10.971 16.6318 11.8007 16.5346 12.426 15.8271C12.6851 15.5356 12.8695 15.6378 13.0962 15.8719C13.6642 16.4624 14.3792 16.6268 15.1764 16.6069C16.2427 16.5795 17.309 16.6019 18.3753 16.6069C18.6095 16.6069 18.9234 16.5521 18.886 16.9333C18.8562 17.2397 18.5696 17.1575 18.3753 17.1625C17.7649 17.1774 17.1571 17.1699 16.5467 17.1774C16.2502 17.1799 15.9189 17.1076 15.7594 17.4789C15.5476 17.4714 15.3384 17.4664 15.1266 17.4564L15.1291 17.4515Z" fill="#EDCF73"/>
<path d="M18.2578 10.9866C17.7944 10.9791 17.8642 10.5108 17.6026 10.2442C17.3983 10.5656 17.199 10.877 17.0046 11.1934C16.3021 12.327 15.3055 12.327 14.6129 11.176C13.9976 10.1495 13.4146 9.10565 12.8142 8.06178C12.0942 8.56503 12.1889 9.60143 11.3169 9.85306C11.3443 8.9188 11.9372 8.24365 12.4654 7.58344C12.7968 7.16988 13.1156 7.58344 13.305 7.90233C13.873 8.87146 14.4186 9.85306 14.9842 10.8222C15.5323 11.7614 16.0729 11.7564 16.6384 10.8222C16.7331 10.6652 16.8203 10.5058 16.9249 10.3563C17.1491 10.0299 17.2588 9.39216 17.7994 9.68614C18.2179 9.91285 18.4994 10.4161 18.2578 10.9891V10.9866Z" fill="#16140F"/>
<path d="M18.6165 13.1092C18.6962 12.7704 18.7735 12.4316 18.8507 12.0903C19.2792 12.18 19.6454 11.9209 20.2259 11.734C19.7625 13.2388 19.4287 14.604 18.903 15.8896C18.6937 16.4003 17.9937 16.1063 17.5054 16.0565C17.5054 16.0092 17.5253 15.9718 17.5652 15.9444C17.9638 16.1312 18.1855 15.8447 18.3998 15.6081C18.9628 14.9927 19.04 13.9712 18.614 13.1092H18.6165Z" fill="#CA9254"/>
<path d="M12.7971 14.2353C12.4259 14.0584 12.1693 13.7793 12.1569 13.4729C12.1419 13.1241 12.401 12.7056 12.7498 12.6981C13.0488 12.6931 13.2854 13.0917 13.3029 13.4306C13.3203 13.7868 13.0014 13.9861 12.7971 14.2353Z" fill="#CA646C"/>
<path d="M12.4007 12.0079C12.2288 12.3044 12.1092 12.7105 11.7455 12.8077C11.5262 12.8675 11.4664 12.5436 11.4639 12.3293C11.459 11.9257 11.6832 11.709 12.0669 11.6666C12.2761 11.6442 12.4181 11.7414 12.4007 12.0079Z" fill="#CA646C"/>
<path d="M14.0446 12.2272C14.0496 12.5585 13.945 12.87 13.7731 12.8251C13.3794 12.718 13.1851 12.3343 13.0556 11.9656C12.9758 11.7389 13.1926 11.6417 13.3745 11.6492C13.8005 11.6642 14.0247 11.9108 14.0446 12.2297V12.2272Z" fill="#CA646C"/>
<path d="M15.5921 15.2715C14.8173 15.3736 14.6081 14.7682 14.4735 14.2301C14.344 13.7219 15.0515 13.1389 15.6345 13.1264C16.4018 13.109 16.7033 13.6845 16.6933 14.2251C16.6833 14.7583 16.3794 15.3562 15.5921 15.2715Z" fill="#16140F"/>
<path d="M9.89459 13.1291C10.5971 13.0469 10.941 13.5726 10.9659 14.1431C10.9908 14.6962 10.7267 15.2318 9.96684 15.2866C9.15964 15.3439 8.81334 14.8208 8.79092 14.2253C8.77099 13.6722 9.08739 13.1092 9.89459 13.1291Z" fill="#16140F"/>
<path d="M18.6164 13.1091C19.0425 13.9711 18.9627 14.9926 18.4022 15.6079C18.1879 15.8446 17.9662 16.1311 17.5676 15.9443C16.9647 15.2367 17.154 14.4968 17.4928 13.7594C17.7121 13.2835 18.031 12.9596 18.6164 13.1091ZM18.315 13.5476C17.6349 14.4021 17.5875 14.6537 17.9164 15.3837C18.3449 14.873 18.5317 14.3324 18.315 13.5476Z" fill="#16140F"/>
<path d="M8.26489 14.9276C8.27735 15.3811 8.19015 15.8669 7.72676 15.979C7.29825 16.0786 7.05161 15.6476 6.86227 15.2989C6.61313 14.8355 6.48358 14.3322 6.56081 13.8041C6.60566 13.4976 6.7078 13.1912 7.05161 13.099C7.39791 13.0043 7.62462 13.2186 7.81645 13.4752C8.14033 13.9062 8.25493 14.402 8.26489 14.9301V14.9276ZM7.13133 13.4503C7.02171 14.3223 7.05659 14.9052 7.62462 15.4483C7.94102 14.7059 7.69687 14.1753 7.13133 13.4503Z" fill="#16140F"/>
<path d="M18.3151 13.5502C18.5343 14.3349 18.345 14.8756 17.9165 15.3863C17.5851 14.6563 17.6325 14.4047 18.3151 13.5502Z" fill="#CA646C"/>
<path d="M7.1316 13.4529C7.69714 14.1804 7.94378 14.7085 7.62489 15.4509C7.05686 14.9078 7.02198 14.3249 7.1316 13.4529Z" fill="#CA646C"/>
<defs>
<clipPath id="clip0_1189_5267">
<rect width="25" height="25" fill="white" transform="translate(0.387695 0.972046)"/>
</clipPath>
</defs>
</svg>

<svg width="26" height="26" fill="none" xmlns="http://www.w3.org/2000/svg"><g opacity=".69" clip-path="url(#a)"><path d="M12.888 25.972c6.903 0 12.5-5.596 12.5-12.5S19.79.972 12.888.972c-6.904 0-12.5 5.596-12.5 12.5s5.596 12.5 12.5 12.5z" fill="#FFD015"/><path d="M12.888 24.082c5.86 0 10.61-4.75 10.61-10.61 0-5.86-4.75-10.61-10.61-10.61-5.86 0-10.61 4.75-10.61 10.61 0 5.86 4.75 10.61 10.61 10.61z" fill="#FFC501"/><path d="M18.438 4.417a10.556 10.556 0 0 1 1.67 5.715c0 5.858-4.75 10.61-10.61 10.61-2.036 0-3.935-.573-5.55-1.566a10.597 10.597 0 0 0 8.94 4.895c5.858 0 10.61-4.75 10.61-10.61 0-3.825-2.026-7.176-5.058-9.041l-.002-.003z" fill="#F5B611"/><path d="M4.138 14.443a9.366 9.366 0 0 1 16.79-5.709A9.366 9.366 0 1 0 5.385 19.113a9.31 9.31 0 0 1-1.244-4.667l-.003-.003z" fill="#FFD453"/></g><path d="M21.185 10.887c-.493.67-.543 1.507-.85 2.25-.139.336.23.535.362.782.374.702-.037 1.33-.493 1.432-.81.18-.865.648-.802 1.216.1.917-.302 1.216-1.154 1.104-.825-.11-1.687.216-2.489-.197.16-.369.491-.297.788-.302.61-.007 1.218 0 1.828-.015.195-.005.481.078.51-.229.038-.38-.276-.324-.51-.326-1.066-.008-2.135-.027-3.199 0-.8.02-1.514-.145-2.08-.735-.224-.234-.411-.336-.67-.045-.626.708-1.453.805-2.337.777a59.815 59.815 0 0 0-2.835 0c-.24.005-.645-.157-.66.25-.018.49.433.31.69.31 2.284.016 4.571.003 6.856.013.346 0 .75-.14.989.274-.244.344-.61.212-.927.215-2.344.01-4.691-.025-7.033.022-.835.018-1.173-.241-1.119-1.089.033-.533.142-1.116-.747-1.245-.379-.055-.917-.685-.59-1.146.695-.98.152-1.816-.045-2.726-.095-.44-.735-1.016-.045-1.343.588-.276.697.506.996.835.222.242.352.615.743.6.46-.015.526-.438.675-.76.025-.054.032-.12.065-.169.239-.354.154-1.006.757-1.011.513-.003.56.568.8.896.09.123.157.26.237.39.495.779.996.789 1.514.032.165-.242.25-.583.66-.501-.05.727-.383 1.328-1.08 1.51-1.344.346-1.49-1.002-2.11-1.697-.4.503-.395 1.15-.84 1.557-.539.493-1.114.107-1.752-.037.12.398.182.692.297.964.47 1.108.279 2.78 1.337 3.261 1.057.48 2.507.105 3.787.09.618-.008 1.077-.332 1.513-.743.274-.259.301-.423.062-.727a20.964 20.964 0 0 1-1.201-1.717c-.316-.5-.217-.994.182-1.415.369-.389 2.264-.498 2.758-.152.428.302.66.723.513 1.26-.055.2-.18.385-.296.559-.237.351-.494.692-.738 1.041-.605.862-.546 1.146.409 1.652.259.137.573.237.864.242.91.017 1.821-.02 2.73-.038.492.053 1.192.347 1.398-.167.526-1.288.86-2.653 1.323-4.155-.583.187-.949.443-1.375.356-.214-.11-.331-.261-.21-.51.796.196 1.094-.39 1.443-.902.262-.384.486-.868 1.099-.521v.732l.002-.002zm-8.388 3.346c.204-.25.52-.444.506-.805-.018-.339-.254-.74-.553-.733-.347.008-.608.426-.593.775.012.307.269.583.64.763zm-.394-2.23c.018-.264-.127-.364-.334-.341-.383.044-.607.261-.602.662 0 .215.064.538.281.479.364-.098.486-.506.655-.8zm1.642.222c-.022-.32-.244-.566-.67-.58-.182-.008-.399.089-.319.316.13.368.327.752.718.859.169.047.274-.264.271-.598v.003z" fill="#16140F"/><path d="M18.644 11.582c-.124.25-.007.399.21.51-.08.34-.158.678-.235 1.02-.588-.15-.907.177-1.123.65-.34.737-.529 1.477.074 2.185a.135.135 0 0 0-.06.112c-.909.017-1.82.055-2.73.037a2.001 2.001 0 0 1-.864-.241c-.955-.506-1.014-.793-.41-1.652.245-.346.502-.688.738-1.041.117-.175.245-.362.297-.559.147-.538-.085-.959-.513-1.26-.494-.347-2.39-.237-2.758.152-.399.418-.499.914-.182 1.415.373.59.767 1.168 1.2 1.716.242.307.215.469-.062.728-.433.413-.894.737-1.512.742-1.278.013-2.728.389-3.787-.09-1.059-.48-.867-2.154-1.338-3.26-.114-.27-.176-.564-.296-.965.638.145 1.21.53 1.751.038.444-.406.444-1.054.84-1.557.62.695.767 2.043 2.11 1.696.698-.18 1.032-.78 1.081-1.51.08-.199.162-.398.245-.595.871-.252.777-1.288 1.497-1.791.6 1.041 1.183 2.088 1.799 3.114.692 1.153 1.689 1.15 2.391.017.197-.316.396-.63.598-.949.264.267.192.735.655.742.058.245.187.441.387.596h-.003zm-3.052 3.69c.787.084 1.091-.516 1.101-1.047.01-.538-.291-1.116-1.059-1.098-.582.012-1.287.595-1.16 1.103.137.536.343 1.141 1.118 1.042zm-5.698-2.14c-.807-.02-1.123.543-1.103 1.096.022.593.369 1.118 1.176 1.061.757-.055 1.024-.588.999-1.143-.025-.57-.374-1.1-1.072-1.014zm-1.629 1.8c-.007-.527-.124-1.023-.448-1.454-.192-.257-.419-.469-.765-.376-.341.092-.444.398-.49.705-.08.53.049 1.031.3 1.495.187.346.436.782.865.68.466-.11.55-.598.538-1.052v.003z" fill="#F3C65F"/><path d="M15.13 17.451c-.24-.413-.644-.274-.99-.274-2.285-.01-4.572 0-6.856-.012-.254 0-.708.18-.69-.311.015-.407.42-.247.66-.25a59.815 59.815 0 0 1 2.835 0c.882.028 1.712-.07 2.337-.777.26-.291.444-.19.67.045.568.59 1.283.755 2.08.735 1.067-.027 2.133-.005 3.2 0 .233 0 .547-.055.51.326-.03.307-.316.224-.51.23-.611.014-1.219.007-1.83.014-.296.003-.627-.07-.787.302-.211-.008-.42-.013-.632-.023l.002-.005z" fill="#EDCF73"/><path d="M18.258 10.987c-.464-.008-.394-.476-.655-.743-.205.322-.404.633-.598.95-.703 1.133-1.7 1.133-2.392-.018-.615-1.027-1.198-2.07-1.799-3.114-.72.503-.625 1.54-1.497 1.791.027-.934.62-1.61 1.148-2.27.332-.413.65 0 .84.32.568.968 1.114 1.95 1.68 2.92.547.938 1.088.933 1.653 0 .095-.158.182-.317.287-.467.224-.326.334-.964.874-.67.419.227.7.73.459 1.303v-.002z" fill="#16140F"/><path d="M18.616 13.11c.08-.34.157-.678.235-1.02.428.09.794-.17 1.375-.356-.463 1.505-.797 2.87-1.323 4.156-.21.51-.91.216-1.398.166a.13.13 0 0 1 .06-.112c.399.187.62-.1.835-.336.563-.615.64-1.637.214-2.499h.002z" fill="#CA9254"/><path d="M12.797 14.235c-.371-.177-.628-.456-.64-.762-.015-.349.244-.767.593-.775.299-.005.535.394.553.733.017.356-.302.555-.506.804zM12.4 12.008c-.171.296-.29.703-.655.8-.219.06-.279-.264-.281-.479-.005-.403.22-.62.603-.662.21-.023.351.074.334.34zM14.045 12.227c.005.332-.1.643-.272.598-.394-.107-.588-.49-.717-.86-.08-.226.137-.323.319-.316.425.015.65.262.67.58v-.002z" fill="#CA646C"/><path d="M15.592 15.271c-.775.103-.984-.503-1.119-1.04-.129-.51.579-1.092 1.161-1.105.768-.017 1.07.559 1.06 1.1-.01.532-.315 1.13-1.102 1.045zM9.895 13.13c.702-.083 1.046.443 1.07 1.013.026.553-.238 1.089-.998 1.144-.807.057-1.154-.466-1.176-1.062-.02-.553.296-1.116 1.104-1.096zM18.616 13.11c.427.861.347 1.883-.214 2.498-.214.237-.436.523-.834.336-.603-.707-.414-1.447-.075-2.185.22-.476.538-.8 1.123-.65zm-.301.438c-.68.854-.728 1.106-.399 1.836.429-.511.616-1.052.399-1.836zM8.265 14.928c.012.453-.075.939-.538 1.051-.429.1-.675-.331-.865-.68-.249-.463-.378-.967-.301-1.495.045-.306.147-.613.49-.705.347-.095.574.12.765.376.324.431.439.927.449 1.455v-.002zM7.13 13.45c-.11.872-.074 1.455.494 1.998.316-.742.072-1.273-.494-1.998z" fill="#16140F"/><path d="M18.315 13.55c.22.785.03 1.326-.399 1.836-.33-.73-.284-.981.4-1.836zM7.132 13.453c.565.727.812 1.256.493 1.998-.568-.543-.603-1.126-.493-1.998z" fill="#CA646C"/><defs><clipPath id="a"><path fill="#fff" transform="translate(.388 .972)" d="M0 0h25v25H0z"/></clipPath></defs></svg>
